X: 23
T: Don't wrangle Miss?
%R: jig
B: "Twenty Four Favourite Dances for the Year 1783", Thomas Straight, ed. p.12 #1
F: http://www.vwml.org/browse/browse-collections-dance-tune-books/browse-straights1783
Z: 2014 John Chambers <jc:trillian.mit.edu>
M: 6/8
L: 1/8
K: D
|:\
d2d fed | dcB A2G/F/ |\
B2B Bcd | A2F DEF |\
G3 BAG | F2E D3 ::\
A2A ABc | def e3 |
AFA ABc | def e2d/c/ |\
B2d A2d | G2d F>GA |\
B2B B>cd | A2F D>EF |\
G2B BAG | FGE D3 :|
% - - - - - - - - - - Dance description: - - - - - - - - - -
%%begintext align
%% The 1st Lady set to the 2d Gent & turn the 3d
%% Gent .|. the 1st Gent do the same .|: set 3 &
%% 3 top & bottom then sideways :|. hands 6
%% round :|:
%%endtext

%%sep 1 1 500
%%sep 1 1 500
